X:687
L:1/16
M:2/4
K:F
 (Ac) | (dc).c.c c2Ac | (dc).c.c c2ag | (gf)(fe) (ed)(dc) | (cB).B.B B2(GB) | (cB).B.B B2(GB) | 
 (cB).B.B B2(gf) | (fe)(ed) (dc)(cB) | .B.A.A.A A2 :: (cA) | BcdB GABG | ABcA FAcA | BcdB GABG | 
 ABcA E2C2 | (FE)(GF) (AG)(BA) | (cB)(dc) e2df | cdBG AcBG | (GF).F.F .F4 :|

